X: 12
T: (no words)
N: Derived from ojibwa12.krn
C: Chippewa Songs ~ 1910
O: Red Wing, Minnesota, U.S.A
N: Chippewa Music by Frances Densmore, 1910
Z: transcribed to **kern format by Paul von Hippel and Daniel T. Shanahan
L: 1/8
M: 3/4
Q: 1/4=108
K: Db clef=bass
%%linebreak <none>
F3G/ F/ D B, | 
F3G/ F/ D B, | 
[M:2/4]D3G/ E/ | 
D B, D B, | 
A,> A,A,2- | 
A,4 | 
F,2A,2 | 
B,2A,2 | 
A,< F, F,3/ F,/ | 
F,4- | 
F,4 | 
B,2D2- | 
D2F D | 
B,2(3D B,- B, | 
A,> A,A,2- | 
A,4 | 
F,2A,2 | 
B,2A,2 | 
A,< F, F,3/ F,/ | 
F,4- | 
F,4 |]  



